src/assets/svg_icons/linkedin.svg

<?xml version="1.0" encoding="utf-8"?><!-- Uploaded to: SVG Repo, www.svgrepo.com, Generator: SVG Repo Mixer Tools -->
<svg width="800px" height="800px" viewBox="0 0 24 24" fill="none" xmlns="http://www.w3.org/2000/svg">
<path d="M22 3.47059V20.5294C22 20.9194 21.8451 21.2935 21.5693 21.5693C21.2935 21.8451 20.9194 22 20.5294 22H3.47059C3.08056 22 2.70651 21.8451 2.43073 21.5693C2.15494 21.2935 2 20.9194 2 20.5294V3.47059C2 3.08056 2.15494 2.70651 2.43073 2.43073C2.70651 2.15494 3.08056 2 3.47059 2H20.5294C20.9194 2 21.2935 2.15494 21.5693 2.43073C21.8451 2.70651 22 3.08056 22 3.47059ZM7.88235 9.64706H4.94118V19.0588H7.88235V9.64706ZM8.14706 6.41177C8.14861 6.18929 8.10632 5.96869 8.02261 5.76255C7.93891 5.55642 7.81542 5.36879 7.65919 5.21039C7.50297 5.05198 7.31708 4.92589 7.11213 4.83933C6.90718 4.75277 6.68718 4.70742 6.46471 4.70588H6.41177C5.95934 4.70588 5.52544 4.88561 5.20552 5.20552C4.88561 5.52544 4.70588 5.95934 4.70588 6.41177C4.70588 6.86419 4.88561 7.29809 5.20552 7.61801C5.52544 7.93792 5.95934 8.11765 6.41177 8.11765C6.63426 8.12312 6.85565 8.0847 7.06328 8.00458C7.27092 7.92447 7.46074 7.80422 7.62189 7.65072C7.78304 7.49722 7.91237 7.31346 8.00248 7.10996C8.09259 6.90646 8.14172 6.6872 8.14706 6.46471V6.41177ZM19.0588 13.3412C19.0588 10.5118 17.2588 9.41177 15.4706 9.41177C14.8851 9.38245 14.3021 9.50715 13.7799 9.77345C13.2576 10.0397 12.8143 10.4383 12.4941 10.9294H12.4118V9.64706H9.64706V19.0588H12.5882V14.0529C12.5457 13.5403 12.7072 13.0315 13.0376 12.6372C13.3681 12.2429 13.8407 11.9949 14.3529 11.9471H14.4647C15.4 11.9471 16.0941 12.5353 16.0941 14.0176V19.0588H19.0353L19.0588 13.3412Z" fill="#000000"/>
</svg>

<svg
  xmlns="http://www.w3.org/2000/svg"
  width="800"
  height="800"
  viewBox="0 0 24 24"
  fill="none"
  xmlns:v="https://vecta.io/nano"
>
  <path
    d="M22 3.471v17.059A1.47 1.47 0 0 1 20.529 22H3.471A1.47 1.47 0 0 1 2 20.529V3.471A1.47 1.47 0 0 1 3.471 2h17.059A1.47 1.47 0 0 1 22 3.471zM7.882 9.647H4.941v9.412h2.941V9.647zm.265-3.235c.002-.222-.041-.443-.124-.649s-.207-.394-.363-.552-.342-.285-.547-.371-.425-.132-.647-.133h-.053c-.452 0-.886.18-1.206.5s-.5.754-.5 1.206.18.886.5 1.206.754.5 1.206.5c.222.005.444-.033.652-.113s.397-.2.559-.354.29-.337.381-.541.139-.423.145-.645v-.053zm10.912 6.929c0-2.829-1.8-3.929-3.588-3.929-.585-.029-1.168.095-1.691.362s-.966.665-1.286 1.156h-.082V9.647H9.647v9.412h2.941v-5.006c-.043-.513.119-1.021.449-1.416s.803-.642 1.315-.69h.112c.935 0 1.629.588 1.629 2.07v5.041h2.941l.024-5.718z"
    fill="#000"
  />
</svg>
